X: 19444
T: Jackson's
R: reel
M: 4/4
K: Edorian
efed BcdB|ABGB AFGF|EFGA B~F3|ABdf e ~B3|
~e3d BcdB|A2GB AFGF|EFGA (3Bcd ef|gefd B~e3:|
efed Bdeg|fdad bdad|efed BcdB|BAGF G~E3|
efed Bdeg|fdad bdad|bgaf gfed|BdAd B~E3||
~e3d Bdeg|fddc dfaf|gfed Bdef|gfga bg e2|
gbef gbeg|fade fada|bgaf gfef|~g3f efgf||

